X:28
T:The Irish Man in Spain
S:John Moore's Book 2
Z:Transcribed by Taz Tarry 04/2021
%%VWML: Moore1-4494-p25-1
F:http://www.vwml.org/record/Moore2/4494/p25
M:2/4
L:1/8
K:G
ddBB| GG c2|Bdge|e2 d2|ddBB|GG A2|(B/c/B/A/) GF|G2 G2:|
AGAB|c2 A2|BABc|d2B2|ddBG|eedc|BgAf|g2G2:|

